X: 11624
T: Eighth Black Watch On Passchendaele Ridge
R: jig
M: 6/8
K: Amixolydian
e>AA B>AG|A>Bd e2 a|g>fe d>ed|e<gG B>AG|
e>AA B>AG|A>Bd e2 a|g>fe d>eg|B>AA A2 z:|
|:a>ea a2 g|e>de a2 e|g>fe d>ed|e<gG B>AG|
[1 a>ea a2 g|e>de a2 e|g>fe d>eg|B>AA A2 z:|
[2 e>AA B>AG|A>Bd e2 a|g>fe d>eg|B>AA A2 z||
|:e>dB A>BG|A>Bd e2 a|g>fe d>ed|e<gG B>AG|
e>dB A>BG|A>Bd e2 a|g>fe d>eg|B>AA A2 z:|
|:a>ea g>ed|e>fg a2 e|g>fg f>ed|e<gG B>AG|
[1 a>ea g>ed|e>fg a2 e|g>fe d>eg|B>AA A2 z:|
[2 e>AA B>AG|A>Bd e2 a|g>fe d>eg|B>AA A2 z||

